X: 1
T: The Lark In The Morning
R: jig
M: 6/8
L: 1/8
K: Dmaj
|:"D"AFA AFA|"G"BGB BdB|"D"AFA AFA|"Bm"fed "G"BdB|
"D"AFA AFA|"G"BGB BdB|"D"def "A"afe|"Bm"dBB BdB:|
|:"D"def afe| "G"bff "D"afe|"D"def "A"afe|"Bm"dBB "G"BdB|
"D"def afe|"G"bff "D"afe|"Em"g2e "D"f2d|"Bm"edB BdB:|
|:"D"dff fef|"D"fef fef|"D"dff fef|"Bm"edB "G"BdB|
"D"dff fef|"D"fef def|"G"g2e "D"f2d|"Bm"edB BdB:|
|:"D"Add fdd|"D"edd fdd|"D"Add fdd|"Bm"edB BdB|
"D"Add fdd|"A"edB "G"def| "G"g2e "D"f2d|1"Bm"edB BAB:|2"Bm" edB B z2|]
